X:191
T:Sword in Hand (reel), The  
B:CRE1.144 (Claoimh i Laimh)
F:file ID: cre.1/191sword
S:Sonny Brogan
N:Part A is a reel version of the jig "Leitrim Fancy".
M:C
L:1/8
Q:180
R:reel
K:G
EF|:G2BG FAAF|EBBA BEE2|G2BG FAAB|dBAG FDD2:|
fd (3gfe dBAF|EBBA BEE2|fd (3gfe dBAF|GBAG FDD2:|

%%%

